packages/core/src/svgs/tokens/mono/C98.svg

<svg width="24" height="24" viewBox="0 0 24 24" fill="none" xmlns="http://www.w3.org/2000/svg">
<path fill-rule="evenodd" clip-rule="evenodd" d="M11.9999 9.18748C11.9999 10.5136 11.4732 11.7853 10.5355 12.723C9.59779 13.6607 8.32605 14.1874 6.99998 14.1874C5.67389 14.1874 4.40213 13.6607 3.46445 12.723C2.52678 11.7853 2 10.5136 2 9.18748C2 7.86139 2.52678 6.58963 3.46445 5.65195C4.40213 4.71428 5.67389 4.1875 6.99998 4.1875C8.32605 4.1875 9.59779 4.71428 10.5355 5.65195C11.4732 6.58963 11.9999 7.86139 11.9999 9.18748ZM10.125 9.18748C10.125 10.0163 9.79568 10.8111 9.20973 11.3972C8.62363 11.9832 7.82878 12.3125 6.99998 12.3125C6.17118 12.3125 5.37632 11.9832 4.79028 11.3972C4.20423 10.8111 3.87499 10.0163 3.87499 9.18748C3.87499 8.35868 4.20423 7.56382 4.79028 6.97778C5.37632 6.39173 6.17118 6.06249 6.99998 6.06249C7.82878 6.06249 8.62363 6.39173 9.20973 6.97778C9.79568 7.56382 10.125 8.35868 10.125 9.18748ZM4.49998 15.4375H2.625C2.625 16.012 2.73816 16.5809 2.95802 17.1117C3.17788 17.6425 3.50014 18.1248 3.9064 18.5311C4.31265 18.9372 4.79495 19.2595 5.32575 19.4794C5.85654 19.6993 6.42544 19.8125 6.99998 19.8125C7.5745 19.8125 8.14341 19.6993 8.67422 19.4794C9.20506 19.2595 9.68733 18.9372 10.0936 18.5311C10.4998 18.1248 10.8221 17.6425 11.042 17.1117C11.2617 16.5809 11.3749 16.012 11.3749 15.4375H9.49994C9.49994 16.1005 9.23656 16.7363 8.76774 17.2052C8.2989 17.674 7.66301 17.9374 6.99998 17.9374C6.33694 17.9374 5.70106 17.674 5.23222 17.2052C4.76337 16.7363 4.49998 16.1005 4.49998 15.4375ZM8.24997 9.18748C8.24956 9.42119 8.18365 9.65015 8.05971 9.84819C7.93578 10.0464 7.75878 10.2058 7.54881 10.3083C7.33884 10.411 7.10431 10.4527 6.87184 10.4288C6.63938 10.4047 6.41828 10.316 6.23364 10.1728C6.04902 10.0296 5.90825 9.8374 5.82732 9.61821C5.7464 9.39888 5.72855 9.16138 5.77582 8.93251C5.82307 8.70364 5.93353 8.4926 6.09469 8.32335C6.25584 8.1541 6.4612 8.0334 6.68748 7.97498V7.31248H7.31247V7.97498C7.58115 8.04436 7.81912 8.20115 7.98886 8.42069C8.15859 8.64021 8.25045 8.90999 8.24997 9.18748ZM17 9.81246C18.326 9.81246 19.5978 10.3392 20.5354 11.2769C21.4731 12.2146 22 13.4864 22 14.8125C22 16.1385 21.4731 17.4104 20.5354 18.3479C19.5978 19.2856 18.326 19.8125 17 19.8125C15.6739 19.8125 14.4021 19.2856 13.4644 18.3479C12.5267 17.4104 11.9999 16.1385 11.9999 14.8125C11.9999 13.4864 12.5267 12.2146 13.4644 11.2769C14.4021 10.3392 15.6739 9.81246 17 9.81246ZM17 11.6874C17.8287 11.6874 18.6235 12.0167 19.2096 12.6028C19.7957 13.1888 20.1249 13.9837 20.1249 14.8125C20.1249 15.6413 19.7957 16.436 19.2096 17.0221C18.6235 17.6082 17.8287 17.9374 17 17.9374C16.1712 17.9374 15.3763 17.6082 14.7903 17.0221C14.2042 16.436 13.8749 15.6413 13.8749 14.8125C13.8749 13.9837 14.2042 13.1888 14.7903 12.6028C15.3763 12.0167 16.1712 11.6874 17 11.6874ZM18.2499 14.8125C18.2495 14.5787 18.1836 14.3499 18.0597 14.1517C17.9358 13.9537 17.7587 13.7941 17.5487 13.6916C17.3387 13.5889 17.1042 13.5472 16.8718 13.5713C16.6393 13.5952 16.4182 13.6839 16.2336 13.8271C16.049 13.9704 15.9083 14.1625 15.8273 14.3818C15.7464 14.601 15.7285 14.8386 15.7757 15.0674C15.8231 15.2964 15.9335 15.5074 16.0946 15.6765C16.2558 15.8459 16.4611 15.9665 16.6875 16.0249V16.6875H17.3125V16.0249C17.5811 15.9555 17.8191 15.7988 17.9889 15.5793C18.1586 15.3597 18.2505 15.09 18.2499 14.8125ZM17 4.1875C17.7366 4.18792 18.4612 4.37436 19.1067 4.72952C19.7521 5.08468 20.2974 5.59708 20.692 6.21917C21.0865 6.84126 21.3176 7.55293 21.3639 8.28816C21.41 9.02339 21.2698 9.75836 20.9561 10.425C20.482 9.99709 19.9417 9.64884 19.3562 9.39373C19.4899 9.01659 19.5312 8.61286 19.4765 8.21647C19.4218 7.82008 19.2728 7.44262 19.0418 7.11579C18.8109 6.78897 18.505 6.52233 18.1497 6.3383C17.7943 6.15427 17.4001 6.05823 17 6.05823C16.5998 6.05823 16.2055 6.15427 15.8502 6.3383C15.4948 6.52233 15.1889 6.78897 14.958 7.11579C14.7272 7.44262 14.5781 7.82008 14.5234 8.21647C14.4688 8.61286 14.51 9.01659 14.6438 9.39373C14.0499 9.65001 13.5125 10 13.0437 10.425C12.7301 9.75836 12.5898 9.02339 12.6361 8.28816C12.6823 7.55293 12.9133 6.84126 13.3079 6.21917C13.7025 5.59708 14.2478 5.08468 14.8933 4.72952C15.5386 4.37436 16.2632 4.18792 17 4.1875Z" fill="white"/>
</svg>

<svg xmlns="http://www.w3.org/2000/svg" width="24" height="24" fill="none" viewBox="0 0 24 24">
    <path fill="#fff" fill-rule="evenodd" d="M12 9.187a5 5 0 1 1-10 0 5 5 0 0 1 10 0m-1.875 0a3.125 3.125 0 1 1-6.251 0 3.125 3.125 0 0 1 6.251 0M4.5 15.437H2.625a4.375 4.375 0 0 0 8.75 0H9.5a2.5 2.5 0 0 1-5 0m3.75-6.25a1.25 1.25 0 1 1-1.563-1.212v-.663h.625v.663a1.25 1.25 0 0 1 .938 1.212m8.75.625a5 5 0 1 1 0 10 5 5 0 0 1 0-10m0 1.875a3.125 3.125 0 1 1 0 6.25 3.125 3.125 0 0 1 0-6.25m1.25 3.126a1.25 1.25 0 1 0-1.562 1.212v.663h.625v-.663a1.25 1.25 0 0 0 .937-1.212M17 4.188a4.375 4.375 0 0 1 3.956 6.237 5.9 5.9 0 0 0-1.6-1.031 2.5 2.5 0 1 0-4.712 0 5.8 5.8 0 0 0-1.6 1.031A4.374 4.374 0 0 1 17 4.187" clip-rule="evenodd"/>
</svg>
